assets/images/facebook.svg

<?xml version="1.0" ?><svg height="500" id="svg2" version="1.1" width="500" xmlns="http://www.w3.org/2000/svg" xmlns:cc="http://creativecommons.org/ns#" xmlns:dc="http://purl.org/dc/elements/1.1/" xmlns:inkscape="http://www.inkscape.org/namespaces/inkscape" xmlns:rdf="http://www.w3.org/1999/02/22-rdf-syntax-ns#" xmlns:sodipodi="http://sodipodi.sourceforge.net/DTD/sodipodi-0.dtd" xmlns:svg="http://www.w3.org/2000/svg"><defs id="defs4"/><g id="layer1" transform="translate(0,-552.36218)"><path d="m 0,552.36214 0,500.00006 500,0 0,-500.00006 z" id="rect2989-7" style="fill:#45619d;fill-opacity:1;stroke:none"/><path d="M 289.6875 60 C 221.90317 60 199.53125 91.10057 199.53125 144.4375 L 199.53125 186.65625 L 155 186.65625 L 155 250.03125 L 199.53125 250.03125 L 199.53125 440 L 281.65625 440 L 281.65625 250.03125 L 337.46875 250.03125 L 344.96875 186.65625 L 281.65625 186.65625 L 281.65625 149 C 281.65625 131.97966 285.39148 123.34375 311.8125 123.34375 L 344.96875 123.34375 L 344.96875 60 L 289.6875 60 z " id="rect2989-1" style="fill:#ffffff;fill-opacity:1;stroke:none" transform="translate(0,552.36218)"/><path d="M 344.96875 60 L 344.96875 123.34375 L 311.8125 123.34375 C 285.39148 123.34375 281.65625 131.97966 281.65625 149 L 281.65625 186.65625 L 344.96875 186.65625 L 337.46875 250.03125 L 281.65625 250.03125 L 281.65625 440 L 199.53125 440 L 259.53125 500 L 500 500 L 500 215.03125 L 344.96875 60 z " id="path3023" style="fill:#000000;stroke:none;stroke-width:1px;stroke-linecap:butt;stroke-linejoin:miter;stroke-opacity:1;opacity:0.29999999999999999" transform="translate(0,552.36218)"/></g></svg>

<?xml version="1.0" encoding="UTF-8"?>
<svg version="1.1" viewBox="0 0 500 500" xmlns="http://www.w3.org/2000/svg">
    <g transform="translate(0 -552.36)">
        <path d="m0 552.36v500h500v-500z" fill="#45619d"/>
        <path transform="translate(0 552.36)"
              d="m289.69 60c-67.784 0-90.156 31.101-90.156 84.438v42.219h-44.531v63.375h44.531v189.97h82.125v-189.97h55.812l7.5-63.375h-63.312v-37.656c0-17.02 3.7352-25.656 30.156-25.656h33.156v-63.344h-55.281z"
              fill="#fff"/>
        <path transform="translate(0 552.36)"
              d="m344.97 60v63.344h-33.156c-26.421 0-30.156 8.6359-30.156 25.656v37.656h63.312l-7.5 63.375h-55.812v189.97h-82.125l60 60h240.47v-284.97l-155.03-155.03z"
              opacity=".3"/>
    </g>
</svg>
